svgs/duotone/walkie-talkie.svg

<svg xmlns="http://www.w3.org/2000/svg" viewBox="0 0 384 512"><!-- Font Awesome Pro 6.0.0-alpha2 by @fontawesome - https://fontawesome.com License - https://fontawesome.com/license (Commercial License) --><defs><style>.fa-secondary{opacity:.4}</style></defs><path d="M352 96H320V80C320 71.164 312.836 64 304 64H272C263.164 64 256 71.164 256 80V96H224V80C224 71.164 216.836 64 208 64H176C167.164 64 160 71.164 160 80V96H32C14.4 96 0 110.398 0 128V306.75C0 315.234 3.371 323.367 9.369 329.367L32 352V464C32 490.508 53.49 512 80 512H304C330.51 512 352 490.508 352 464V352L374.625 329.375C380.627 323.371 384 315.23 384 306.742V128C384 110.398 369.6 96 352 96ZM288 312C288 316.375 284.375 320 280 320H104C99.625 320 96 316.375 96 312V296C96 291.625 99.625 288 104 288H280C284.375 288 288 291.625 288 296V312ZM288 248C288 252.375 284.375 256 280 256H104C99.625 256 96 252.375 96 248V232C96 227.625 99.625 224 104 224H280C284.375 224 288 227.625 288 232V248ZM288 184C288 188.375 284.375 192 280 192H104C99.625 192 96 188.375 96 184V168C96 163.625 99.625 160 104 160H280C284.375 160 288 163.625 288 168V184Z" class="fa-secondary"/><path d="M280 288H104C99.625 288 96 291.625 96 296V312C96 316.375 99.625 320 104 320H280C284.375 320 288 316.375 288 312V296C288 291.625 284.375 288 280 288ZM280 224H104C99.625 224 96 227.625 96 232V248C96 252.375 99.625 256 104 256H280C284.375 256 288 252.375 288 248V232C288 227.625 284.375 224 280 224ZM280 160H104C99.625 160 96 163.625 96 168V184C96 188.375 99.625 192 104 192H280C284.375 192 288 188.375 288 184V168C288 163.625 284.375 160 280 160ZM112 24C112 10.742 101.254 0 88 0S64 10.742 64 24V96H112V24Z" class="fa-primary"/></svg>

<svg xmlns="http://www.w3.org/2000/svg" viewBox="0 0 384 512"><!--! Font Awesome Pro 6.3.0 by @fontawesome - https://fontawesome.com License - https://fontawesome.com/license (Commercial License) Copyright 2023 Fonticons, Inc. --><defs><style>.fa-secondary{opacity:.4}</style></defs><path class="fa-primary" d="M280 288h-176C99.63 288 96 291.6 96 296v16C96 316.4 99.63 320 104 320h176C284.4 320 288 316.4 288 312v-16C288 291.6 284.4 288 280 288zM280 224h-176C99.63 224 96 227.6 96 232v16C96 252.4 99.63 256 104 256h176C284.4 256 288 252.4 288 248v-16C288 227.6 284.4 224 280 224zM280 160h-176C99.63 160 96 163.6 96 168v16C96 188.4 99.63 192 104 192h176C284.4 192 288 188.4 288 184v-16C288 163.6 284.4 160 280 160zM112 23.1C112 10.74 101.3 0 88 0S64 10.74 64 23.1V96h48V23.1z"/><path class="fa-secondary" d="M352 96h-32V80C320 71.16 312.8 64 304 64h-32C263.2 64 256 71.16 256 80V96h-32V80C224 71.16 216.8 64 208 64h-32C167.2 64 160 71.16 160 80V96H32C14.4 96 0 110.4 0 128v178.7c0 8.484 3.373 16.62 9.371 22.62L32 352v112C32 490.5 53.49 512 80 512h224c26.51 0 48-21.49 48-48V352l22.63-22.63C380.6 323.4 384 315.2 384 306.7V128C384 110.4 369.6 96 352 96zM288 312C288 316.4 284.4 320 280 320h-176C99.63 320 96 316.4 96 312v-16C96 291.6 99.63 288 104 288h176C284.4 288 288 291.6 288 296V312zM288 248C288 252.4 284.4 256 280 256h-176C99.63 256 96 252.4 96 248v-16C96 227.6 99.63 224 104 224h176C284.4 224 288 227.6 288 232V248zM288 184C288 188.4 284.4 192 280 192h-176C99.63 192 96 188.4 96 184v-16C96 163.6 99.63 160 104 160h176C284.4 160 288 163.6 288 168V184z"/></svg>
